X: 233
T: Flatbush Waltz
C:Andy Statman
M:3/4
R:waltz
L:1/8
K:Em
"Em"B3 e BA|G2 E2 E2|B3 e BG|"Am"A3 c BA|
"Em"GA Bc dB|"Am"AE A2 BA|"Em"G3 A"F" =FG|1"Em" E4 GA:|2 E3 G Bd|
"Em"g4 fe|"B"f2 B2 B2|"C"e2 d3c|"G"B6|
"Am"c2 B2 A2|"Em"B2 e2 f2|g3f ga|"B7"f6|
"Em"g4 fe|"B"f2 B2 B2|"C"e2 d3c|"G"B6|
"Am"c2 B2 A2|"Em"B2E2 F2|G3 A "F"=FG|"Em" E6||


